X:4110
T:Mazurka vecchia
O:england
C:Basilio D'Amico
C:Balli popolari in Abruzzo II/11
M:3/4
L:1/8
K:G
e|ed Bd Gd|dc+A3c3+d|dc Ac Fc|+ce++Bd+ +B3d3+e|\
ed Bd Gd|dc+A3c3+d/e/|fe dc B/c/B/A/|Gz+B3d3g3+:|
|:g|(3edB (3GBc (3deg|+df+e +d3f3+e|fe de fe|ed +G2B2d2+gd|\
(3edB (3GBc (3deg|+df+e +d3f3+d/e/|
fe fe fe|+ce++Bd+ +B2d2+ gd|\
(3edB (3GBc (3deg|+df+e +d3f3+e|fe dc B/c/B/A/|Gz+B3d3g3+||
g|f2{f/e/}d2 {d/e/}fe|ed (3dcB (3Bcd|dc (3cBA (3ABc|dc c2 g2|\
f2{f/e/}d2 {d/e/}fe|ed (3dcB (3Bcd|f2 (3fed (3cBA|G2 G2||
gz|:(3ggg (3ggg (3ggg|(3fff (3fff (3fff|\
(3eee (3eee (3eee|(3ddd (3ddd (3ddd|\
(3BBB (3BBB (3ddd|1 (3ccc (3ccc (3ccc|(3AAA (3AAA (3ccc|\
(3BBB (3BBB (3BBB:|2 cz (3FAB cde| dz(3fed (3cBA|G2 G2||


